;FLAVOR:Marlin
;TIME:6744
;Filament used:3.67749m
;Layer height: 0.15
;MINX:49.117
;MINY:74.025
;MINZ:0.18
;MAXX:161.919
;MAXY:145.975
;MAXZ:62.18
                            
;Creality Print GCode Generated by CXEngineDEV
;Generated Time:2022-06-30 15:03:19
;----------Machine Config--------------
;Machine Name:Creality Ender-3 Pro
;Machine Height:250
;Machine Width:220
;Machine Depth:220
;Material name:cxsw
;Number of Extruders:1
;ExtruderParams[0] Nozzle Diameter1000
;----------Profile Config---------------
;Layer Height:0.15
;Wall Thickness:0.8
;Top/Bottom Thickness:1
;Out Wall Line Width:0.4
;Inner Wall Line Width:0.4
;Inital Layer Height:150
;Wall Line Count:2
;Infill Line Distance:4
;Infill Pattern:grid
;Infill Sparse Density:20
;Infill Wipe Distance:0
;Print Temperature:200
;Bed Temperature:60
;Support Enable:false
;Support Density:30
;Support Angle:1.0472
;Adhesion Type:simpleraft
;machine is belt:false
;machine belt offset:10
;machine belt offset Y:0
;Raft Base Line Spacing:1.6
;Wait Heatup Sync:true
;----------Shell Config----------------
;Outer Wall Wipe Distance:200
;Infill Before Walls:false
;Infill Overlap:0.16
;Fill Gaps Between Walls:everywhere
;Minimum Infill Area:1
;Top Surface Skin Layer:0
;Top Layers:4
;Z Seam Alignment:sharpest_corner
;Seam Corner Preference:z_seam_corner_inner
;Z Seam X:110
;Z Seam Y:110
;Horizontal Expansion:0
;Top/Bottom Pattern:zigzag
;Ironing Pattern:zigzag
;Vase Model:false
;----------Support Config----------------
;Support Type:everywhere
;Support Pattern:zigzag
;Support Infill Layer Thickness:0.15
;Minimum Support Area:5
;Enable Support Roof:false
;Support Roof Thickness:0.8
;Support Roof Pattern:lines
;Connect Support Lines:0
;Connect Support ZigZags:1
;Minimum Support X/Y Distance:0.2
;Support Line Distance:1.33
; ---------PrintSpeed & Travel----------
;Enable Print Cool:true
;Avoid Printed Parts Traveling:true
;Enable Retraction:true
;Retraction Distance:8
;Retraction Speed:100
;Retraction Prime Speed:100
;Maximum Retraction Count:100
;Minimum Extrusion Distance Window:1
;Z Hop When Retracted:false
;Z Hop Height:0.2
;Retract Before Outer Wall:true
;Print Speed:50
;Infill Speed:50

;Prime Tower Speed:50
;Travel Speed:120
;Initial Layer Speed:25
;Skirt/Brim Speed:25
;Combing Mode:off
; --------SpecialModel&Mesh Fixes--------
;Union Overlapping Volum:true
;Remove All Holes:false
;Maximum Travel Resolution:0.6
;Maximum Deviation:0.05
;Maximum Model Angle:0.872665
;IS Mold Print:false
;Make Overhang Printable:false
;Enable Coasting:false
;Coasting Volumes:0.06
;Coasting Speed:0.9
;Raft AirGap:0.25
;Layer0 ZOverLap:0.13
;---------------------End of Head--------------------------
M140 S60
M105
M104 S200
M105
M109 S200
M105
M190 S60
M82 ;absolute extrusion mode
M220 S100 ;Reset Feedrate
M221 S100 ;Reset Flowrate

G28 ;Home

G92 E0 ;Reset Extruder
G1 Z2.0 F3000 ;Move Z Axis up
G1 X10.1 Y20 Z0.28 F5000.0 ;Move to start position
G1 X10.1 Y145.0 Z0.28 F1500.0 E15 ;Draw the first line
G1 X10.4 Y145.0 Z0.28 F5000.0 ;Move to side a little
G1 X10.4 Y20 Z0.28 F1500.0 E30 ;Draw the second line
G92 E0  ;Reset Extruder
G1 E-1.0000 F1800 ;Retract a bit
G1 Z2.0 F3000 ;Move Z Axis up
G1 E0.0000 F1800 

G92 E0
G92 E0
G1 F6000 E-8

;LAYER_COUNT:409

;LAYER:-4
M107
G0 F7200 X59.679 Y85.374 Z0.18
;TYPE:SUPPORT-INTERFACE
G1 F6000 E0
G1 F1200 X59.762 Y85.291 E0.00773
G1 X60.8 Y84.318 E0.10142
G1 X60.8 Y135.683 E3.48407
G1 X62.051 Y136.858 E3.5971
G1 X62.4 Y137.149 E3.62702
G1 X62.4 Y82.849 E7.20295
G1 X63.078 Y82.293 E7.26069
G1 X64 Y81.622 E7.33579
G1 X64 Y138.373 E11.07313
G1 X65.579 Y139.524 E11.20181
G1 X65.6 Y139.537 E11.20344
G1 X65.6 Y80.461 E15.09389
G1 X66.602 Y79.82 E15.17222
G1 X67.2 Y79.49 E15.2172
G1 X67.2 Y140.509 E19.23562
G1 X68.8 Y141.391 E19.35593
G1 X68.8 Y78.608 E23.49051
G1 X69.437 Y78.257 E23.53841
G1 X70.4 Y77.798 E23.60866
G1 X70.4 Y103.658 E25.31167
G1 X70.913 Y102.569 E25.39095
G1 X71.239 Y101.977 E25.43546
G1 X71.95 Y100.855 E25.52293
G1 X72 Y100.787 E25.52849
G1 X72 Y77.153 E27.08491
G1 X73.551 Y76.537 E27.19481
G1 X73.6 Y76.52 E27.19823
G1 X73.6 Y98.851 E28.66884
G1 X73.669 Y98.777 E28.6755
G1 X74.642 Y97.862 E28.76346
G1 X75.17 Y97.427 E28.80851
G1 X75.2 Y97.406 E28.81092
G1 X75.2 Y76.029 E30.21871
G1 X76.8 Y75.615 E30.32754
G1 X76.8 Y96.294 E31.68936
G1 X76.814 Y96.285 E31.69046
G1 X77.997 Y95.634 E31.77938
G1 X78.4 Y95.444 E31.80872
G1 X78.4 Y75.239 E33.13932
G1 X79.003 Y75.123 E33.17976
G1 X79.153 Y75.099 E33.18977
G1 X80 Y74.992 E33.24599
G1 X80 Y94.805 E34.55077
G1 X80.49 Y94.646 E34.5847
G1 X81.6 Y94.361 E34.66017
G1 X81.6 Y74.792 E35.94889
G1 X82.362 Y74.697 E35.99946
G1 X83.2 Y74.646 E36.05475
G1 X83.2 Y94.094 E37.3355
G1 X83.783 Y94.02 E37.3742
G1 X84.461 Y93.976 E37.41894
G1 X84.8 Y93.976 E37.44127
G1 X84.8 Y74.627 E38.7155
G1 X86.4 Y74.629 E38.82086
G1 X86.4 Y94.014 E40.09746
G1 X86.47 Y94.019 E40.10209
G1 X87.791 Y94.185 E40.18976
G1 X88 Y94.224 E40.20377
G1 X88 Y74.71 E41.48886
G1 X88.038 Y74.712 E41.49137
G1 X89.6 Y74.91 E41.59506
G1 X89.6 Y94.605 E42.89207
G1 X89.767 Y94.649 E42.90345
G1 X90.406 Y94.855 E42.94766
G1 X91.2 Y95.169 E43.00389
G1 X91.2 Y75.118 E44.32435
G1 X92.27 Y75.318 E44.39603
G1 X92.43 Y75.352 E44.40681
G1 X92.8 Y75.448 E44.43198
G1 X92.8 Y95.935 E45.78115
G1 X93.436 Y96.285 E45.82896
G1 X94.004 Y96.645 E45.87325
G1 X94.4 Y96.932 E45.90545
G1 X94.4 Y75.862 E47.29302
G1 X95.553 Y76.16 E47.37144
G1 X96 Y76.308 E47.40245
G1 X96 Y98.23 E48.84613
G1 X96.581 Y98.777 E48.89868
G1 X97.04 Y99.266 E48.94285
G1 X97.898 Y100.303 E49.03148
G1 X98.3 Y100.855 E49.07645
G1 X99.011 Y101.977 E49.16393
G1 X99.2 Y102.32 E49.18972
G1 X99.2 Y77.531 E50.8222
G1 X97.6 Y76.895 E50.93559
G1 X97.6 Y99.942 E52.45335
;;retract;;
G1 F6000 E44.45335
G0 F7200 X120 Y115.957
G1 F6000 E52.45335
G1 F1200 X120 Y104.057 E53.23703
G1 X120.184 Y105.03 E53.30224
G1 X120.332 Y106.228 E53.38173
G1 X120.532 Y109.439 E53.5936
G1 X120.528 Y110.671 E53.67474
G1 X120.319 Y113.905 E53.88816
G1 X120.163 Y115.106 E53.96791
G1 X119.557 Y118.268 E54.17994
G1 X119.255 Y119.432 E54.25913
G1 X118.4 Y122.064 E54.44138
G1 X118.4 Y97.937 E56.03026
G1 X118.294 Y97.609 E56.05296
G1 X117.84 Y96.449 E56.135
G1 X116.8 Y94.234 E56.29614
G1 X116.8 Y125.767 E58.37275
G1 X116.476 Y126.457 E58.42295
G1 X115.892 Y127.532 E58.50352
G1 X115.2 Y128.625 E58.58871
G1 X115.2 Y91.377 E61.04168
G1 X114.14 Y89.703 E61.17216
G1 X113.6 Y88.958 E61.23276
G1 X113.6 Y131.043 E64.00427
G1 X113.466 Y131.228 E64.01931
G1 X112 Y133.008 E64.17117
G1 X112 Y86.993 E67.20149
G1 X111.407 Y86.273 E67.26292
G1 X110.562 Y85.367 E67.34451
G1 X110.4 Y85.215 E67.35914
G1 X110.4 Y134.792 E70.62404
G1 X108.8 Y136.291 E70.76842
G1 X108.8 Y83.708 E74.23128
G1 X108.199 Y83.142 E74.28565
G1 X107.289 Y82.383 E74.36368
G1 X107.2 Y82.319 E74.3709
G1 X107.2 Y137.685 E78.01703
G1 X107.172 Y137.707 E78.01938
G1 X105.6 Y138.85 E78.14738
G1 X105.6 Y81.153 E81.94702
G1 X104.671 Y80.476 E82.02272
G1 X104 Y80.046 E82.0752
G1 X104 Y139.955 E86.02051
G1 X103.65 Y140.179 E86.04788
G1 X102.4 Y140.869 E86.14191
G1 X102.4 Y79.132 E90.2076
G1 X100.813 Y78.257 E90.32694
G1 X100.8 Y78.251 E90.32789
G1 X100.8 Y106.653 E92.1983
G1 X100.989 Y107.647 E92.26494
G1 X101.074 Y108.327 E92.31007
G1 X101.158 Y109.666 E92.39842
G1 X101.158 Y110.334 E92.44241
G1 X101.074 Y111.673 E92.53076
G1 X100.989 Y112.353 E92.57589
G1 X100.8 Y113.346 E92.64246
G1 X100.8 Y141.75 E94.51301
G1 X99.722 Y142.262 E94.5916
G1 X99.2 Y142.47 E94.62861
G1 X99.2 Y117.679 E96.26122
G1 X99.011 Y118.023 E96.28707
G1 X98.3 Y119.145 E96.37454
G1 X97.898 Y119.697 E96.41951
G1 X97.6 Y120.057 E96.45029
G1 X97.6 Y143.106 E97.96818
G1 X96.699 Y143.463 E98.03201
G1 X96 Y143.693 E98.08047
G1 X96 Y121.769 E99.52427
G1 X95.608 Y122.138 E99.55973
G1 X95.08 Y122.573 E99.60478
G1 X94.4 Y123.067 E99.66013
G1 X94.4 Y144.139 E101.04783
G1 X92.8 Y144.553 E101.15667
G1 X92.8 Y124.064 E102.50597
G1 X92.253 Y124.366 E102.54712
G1 X91.635 Y124.658 E102.59213
G1 X91.2 Y124.83 E102.62294
G1 X91.2 Y144.885 E103.94366
G1 X91.09 Y144.902 E103.95099
G1 X89.6 Y145.089 E104.04988
G1 X89.6 Y125.394 E105.3469
G1 X88.463 Y125.688 E105.42424
G1 X88 Y125.775 E105.45526
G1 X88 Y145.289 E106.74036
G1 X87.888 Y145.303 E106.74779
G1 X86.688 Y145.375 E106.82696
G1 X86.4 Y145.374 E106.84593
G1 X86.4 Y125.985 E108.12279
G1 X85.796 Y126.024 E108.16265
G1 X84.8 Y126.024 E108.22824
G1 X84.8 Y145.372 E109.50241
G1 X83.434 Y145.371 E109.59237
G1 X83.2 Y145.355 E109.60781
G1 X83.2 Y125.909 E110.88843
G1 X82.459 Y125.815 E110.93762
G1 X81.787 Y125.688 E110.98266
G1 X81.6 Y125.64 E110.99537
G1 X81.6 Y145.21 E112.28415
G1 X80 Y145.008 E112.39036
G1 X80 Y125.196 E113.69508
G1 X79.844 Y125.145 E113.70589
G1 X78.615 Y124.658 E113.79295
G1 X78.4 Y124.557 E113.80859
G1 X78.4 Y144.76 E115.13906
G1 X77.982 Y144.682 E115.16706
G1 X77.82 Y144.648 E115.17796
G1 X76.8 Y144.384 E115.24735
G1 X76.8 Y123.707 E116.60903
G1 X76.246 Y123.355 E116.65226
G1 X75.2 Y122.595 E116.73741
G1 X75.2 Y143.97 E118.14506
G1 X74.697 Y143.84 E118.17927
G1 X73.6 Y143.479 E118.25533
G1 X73.6 Y121.15 E119.7258
G1 X73.21 Y120.734 E119.76336
G1 X72.352 Y119.697 E119.85199
G1 X71.95 Y119.145 E119.89696
G1 X71.239 Y118.023 E119.98444
G1 X70.913 Y117.431 E120.02895
G1 X70.4 Y116.343 E120.10816
G1 X70.4 Y142.201 E121.81104
G1 X70.528 Y142.262 E121.82038
G1 X72 Y142.846 E121.92467
G1 X72 Y119.214 E123.48096
;;retract;;
G1 F6000 E115.48096
G0 F7200 X52.8 Y95.618
G1 F6000 E123.48096
G1 F1200 X52.8 Y124.381 E125.37514
G1 X52.409 Y123.548 E125.43574
G1 X51.956 Y122.391 E125.51757
G1 X51.2 Y120.051 E125.67951
G1 X51.2 Y99.934 E127.00432
G1 X51.954 Y97.616 E127.16485
G1 X52.41 Y96.449 E127.24736
G1 X53.777 Y93.537 E127.45921
G1 X54.358 Y92.468 E127.53933
G1 X54.4 Y92.401 E127.54454
G1 X54.4 Y127.596 E129.86231
G1 X56 Y130.123 E130.05928
G1 X56 Y89.876 E132.70975
G1 X56.11 Y89.703 E132.72325
G1 X56.784 Y88.772 E132.79894
G1 X57.6 Y87.781 E132.88348
G1 X57.6 Y132.218 E135.80988
G1 X58.848 Y133.733 E135.93914
G1 X58.944 Y133.84 E135.94861
G1 X59.2 Y134.111 E135.97316
G1 X59.2 Y85.889 E139.14882
G1 X59.68 Y85.375 E139.19514
;;retract;;
G1 F6000 E131.19514
G0 F600 X59.68 Y85.375 Z0.41
G0 F7200 X83.184 Y94.497
;TIME_ELAPSED:114.619207

;LAYER:-3
;TYPE:SUPPORT
G1 F6000 E139.19514
G1 F1800 X67.535 Y78.849 E140.88807
G1 X68.447 Y78.346 E140.96774
G1 X84.475 Y94.375 E142.70179
G0 F7200 X84.474 Y94.376
G1 F1800 X83.821 Y94.418 E142.75184
G1 X82.509 Y94.584 E142.85301
G1 X81.958 Y94.686 E142.89587
G1 X66.623 Y79.351 E144.55489
G1 X66.39 Y79.481 E144.5753
G1 X65.748 Y79.891 E144.63357
G1 X80.827 Y94.97 E146.2649
G1 X80.601 Y95.03 E146.28278
G1 X79.977 Y95.232 E146.33296
G1 X79.76 Y95.316 E146.35076
G1 X64.91 Y80.466 E147.9573
G1 X64.091 Y81.062 E148.03479
G1 X78.749 Y95.719 E149.62051
G1 X78.179 Y95.99 E149.66879
G1 X77.807 Y96.192 E149.70117
G1 X63.272 Y81.657 E151.27364
G1 X62.837 Y81.974 E151.31482
G1 X62.472 Y82.271 E151.35081
G1 X76.902 Y96.701 E152.91192
G1 X76.471 Y96.976 E152.95103
G1 X76.059 Y97.273 E152.98989
G1 X61.707 Y82.92 E154.54261
G1 X60.977 Y83.604 E154.61914
G1 X75.25 Y97.877 E156.16326
G1 X74.907 Y98.162 E156.19738
G1 X74.5 Y98.542 E156.23997
G1 X60.246 Y84.288 E157.78204
G1 X59.517 Y84.973 E157.85856
G1 X73.783 Y99.239 E159.40193
G1 X73.51 Y99.531 E159.43251
G1 X73.125 Y99.995 E159.47863
G1 X58.829 Y85.699 E161.02525
G1 X58.55 Y86 E161.05664
G1 X58.172 Y86.456 E161.10195
G1 X72.497 Y100.781 E162.6517
G1 X72.281 Y101.08 E162.67992
G1 X71.931 Y101.63 E162.72979
G1 X57.533 Y87.232 E164.28744
G1 X56.894 Y88.007 E164.36428
G1 X71.4 Y102.512 E165.93355
G1 X71.269 Y102.751 E165.9544
G1 X70.934 Y103.461 E166.01446
G1 X56.27 Y88.797 E167.60088
G1 X55.772 Y89.489 E167.6661
G1 X55.684 Y89.625 E167.67849
G1 X70.507 Y104.448 E169.28212
G1 X70.467 Y104.551 E169.29057
G1 X70.155 Y105.51 E169.36772
G1 X55.135 Y90.491 E170.9926
G1 X54.587 Y91.356 E171.07093
G1 X69.862 Y106.631 E172.72346
G1 X69.656 Y107.709 E172.80742
G1 X69.641 Y107.825 E172.81636
G1 X54.039 Y92.222 E174.50432
G1 X54.02 Y92.254 E174.50717
G1 X53.539 Y93.137 E174.58409
G1 X69.526 Y109.124 E176.31364
G1 X69.492 Y109.678 E176.3561
G1 X69.492 Y110.322 E176.40536
G1 X69.504 Y110.516 E176.42023
G1 X53.075 Y94.087 E178.1976
G1 X52.624 Y95.05 E178.27895
G1 X69.625 Y112.052 E180.11826
G1 X69.656 Y112.291 E180.13669
G1 X69.9 Y113.57 E180.2363
G1 X69.959 Y113.8 E180.25446
G1 X52.172 Y96.013 E182.17875
G1 X52.037 Y96.303 E182.20322
G1 X51.758 Y97.013 E182.26158
G1 X70.647 Y115.901 E184.30503
G1 X70.709 Y116.06 E184.31808
G1 X71.269 Y117.249 E184.41862
G1 X71.583 Y117.819 E184.46841
G1 X72.281 Y118.92 E184.56813
G1 X72.363 Y119.032 E184.57875
G1 X51.388 Y98.058 E186.84787
G1 X51.041 Y99.125 E186.93371
G1 X96.022 Y144.105 E191.79992
G1 X95.67 Y144.223 E191.82832
G1 X94.918 Y144.415 E191.88769
G1 X50.695 Y100.192 E196.67195
G1 X50.613 Y100.449 E196.69259
G1 X50.39 Y101.302 E196.76004
G1 X93.794 Y144.706 E201.4557
G1 X92.67 Y144.996 E201.5445
G1 X50.143 Y102.469 E206.14528
G1 X49.916 Y103.656 E206.23773
G1 X91.494 Y145.234 E210.73584
G1 X91.326 Y145.269 E210.74897
G1 X91.147 Y145.298 E210.76284
G1 X90.254 Y145.408 E210.83167
G1 X49.689 Y104.844 E215.22014
G1 X49.534 Y106.043 E215.31262
G1 X49.53 Y106.098 E215.31684
G1 X88.997 Y145.565 E219.58658
G1 X87.931 Y145.701 E219.66878
G1 X87.729 Y145.712 E219.68426
G1 X49.444 Y107.427 E223.82612
G1 X49.358 Y108.755 E223.92792
G1 X86.376 Y145.773 E227.93271
G1 X84.96 Y145.771 E228.04103
G1 X49.319 Y110.13 E231.89685
G1 X49.318 Y110.569 E231.93044
G1 X49.382 Y111.608 E232.01007
G1 X83.544 Y145.77 E235.70588
G1 X83.423 Y145.771 E235.71514
G1 X82.2 Y145.69 E235.8089
G1 X82.027 Y145.667 E235.82225
G1 X49.476 Y113.115 E239.34384
G1 X49.519 Y113.8 E239.39634
G1 X49.626 Y114.679 E239.46408
G1 X80.407 Y145.461 E242.79417
G1 X79.103 Y145.298 E242.8947
G1 X78.766 Y145.234 E242.92094
G1 X49.928 Y116.396 E246.04078
G1 X50.258 Y118.14 E246.17656
G1 X76.953 Y144.835 E249.06456
G1 X75.046 Y144.343 E249.21522
G1 X50.79 Y120.087 E251.83935
G1 X51.466 Y122.176 E252.00732
G1 X72.939 Y143.65 E254.33043
G1 X70.592 Y142.717 E254.52363
G1 X52.448 Y124.573 E256.48654
G1 X53.415 Y126.633 E256.66063
G1 X54.021 Y127.746 E256.75757
G1 X55.772 Y130.511 E257.00794
G1 X56.333 Y131.287 E257.08119
G1 X63.684 Y138.638 E257.87645
G1 X65.356 Y139.857 E258.03474
G1 X66.388 Y140.518 E258.12849
G1 X67.702 Y141.241 E258.24323
G1 X53.799 Y127.338 E259.74732
;;retract;;
G1 F6000 E251.74732
G0 F7200 X79.207 Y124.462
G1 F6000 E259.74732
G1 F1800 X98.086 Y143.341 E261.78974
G1 X97.074 Y143.743 E261.87304
G1 X76.044 Y122.713 E264.14817
G1 X76.471 Y123.024 E264.18858
G1 X77.018 Y123.371 E264.23814
G1 X78.179 Y124.01 E264.33952
G1 X78.774 Y124.291 E264.38985
G1 X79.979 Y124.768 E264.48899
G1 X80.595 Y124.967 E264.53851
G1 X81.31 Y125.15 E264.59497
G1 X99.098 Y142.939 E266.51942
G1 X99.875 Y142.632 E266.58333
G1 X100.098 Y142.524 E266.60229
G1 X83.061 Y125.487 E268.44543
G1 X83.818 Y125.583 E268.50381
G1 X84.467 Y125.624 E268.55355
G1 X84.61 Y125.623 E268.56449
G1 X101.053 Y142.065 E270.34332
G1 X101.964 Y141.562 E270.42293
G1 X86.011 Y125.609 E272.14881
G1 X86.432 Y125.583 E272.18107
G1 X87.29 Y125.474 E272.24724
G1 X102.876 Y141.06 E273.93341
G1 X103.787 Y140.557 E274.01301
G1 X88.496 Y125.266 E275.66727
G1 X89.62 Y124.975 E275.75609
G1 X104.653 Y140.009 E277.38249
G1 X104.894 Y139.857 E277.40428
G1 X105.485 Y139.426 E277.46024
G1 X90.669 Y124.61 E279.06311
G1 X91.476 Y124.291 E279.12949
G1 X91.671 Y124.198 E279.14602
G1 X106.304 Y138.831 E280.72909
G1 X107.123 Y138.235 E280.80657
G1 X92.604 Y123.716 E282.37731
G1 X93.232 Y123.371 E282.43212
G1 X93.501 Y123.199 E282.45655
G1 X107.914 Y137.612 E284.01582
G1 X108.37 Y137.241 E284.06079
G1 X108.672 Y136.956 E284.09255
G1 X94.335 Y122.619 E285.6436
G1 X94.835 Y122.257 E285.69082
G1 X95.137 Y122.007 E285.72081
G1 X109.402 Y136.272 E287.26407
G1 X110.132 Y135.588 E287.3406
G1 X95.878 Y121.334 E288.88267
G1 X96.298 Y120.94 E288.92672
G1 X96.587 Y120.629 E288.9592
G1 X110.859 Y134.901 E290.50321
G1 X110.863 Y134.898 E290.5036
G1 X111.542 Y134.169 E290.57981
