;FLAVOR:Marlin
;TIME:6868
;Filament used: 4.3067m
;Layer height: 0.2
;MINX:67.025
;MINY:67.615
;MINZ:0.2
;MAXX:152.975
;MAXY:153.486
;MAXZ:44
;Generated with Cura_SteamEngine 5.2.1
M82 ;absolute extrusion mode
; Ender 3 Custom Start G-code
G92 E0 ; Reset Extruder
G28 ; Home all axes
G29 ; auto-level
M104 S175 ; Start heating up the nozzle most of the way
M190 S60 ; Start heating the bed, wait until target temperature reached
M109 S200 ; Finish heating the nozzle
G1 Z2.0 F3000 ; Move Z Axis up little to prevent scratching of Heat Bed
G1 X0.1 Y20 Z0.3 F5000.0 ; Move to start position
G1 X0.1 Y200.0 Z0.3 F1500.0 E15 ; Draw the first line
G1 X0.4 Y200.0 Z0.3 F5000.0 ; Move to side a little
G1 X0.4 Y20 Z0.3 F1500.0 E30 ; Draw the second line
G92 E0 ; Reset Extruder
G1 Z2.0 F3000 ; Move Z Axis up little to prevent scratching of Heat Bed
G1 X5 Y20 Z0.3 F5000.0 ; Move over to prevent blob squish
G92 E0
G92 E0
G1 F1500 E-6.5
;LAYER_COUNT:220
;LAYER:0
M107
G0 F6000 X78.913 Y80.876 Z0.2
;TYPE:SKIRT
G1 F1500 E0
G1 F1200 X79.727 Y80.08 E0.03787
G1 X81.551 Y78.364 E0.12116
G1 X82.102 Y77.86 E0.146
G1 X82.871 Y77.22 E0.17927
G1 X83.981 Y76.381 E0.22555
G1 X85.823 Y75.043 E0.30127
G1 X86.423 Y74.619 E0.32571
G1 X87.272 Y74.076 E0.35923
G1 X88.265 Y73.504 E0.39734
G1 X90.564 Y72.239 E0.48462
G1 X91.099 Y71.954 E0.50478
G1 X92.023 Y71.515 E0.53881
G1 X93.093 Y71.067 E0.57739
G1 X95.362 Y70.168 E0.65856
G1 X96.114 Y69.881 E0.68534
G1 X97.083 Y69.562 E0.71927
G1 X98.174 Y69.259 E0.75693
G1 X100.712 Y68.606 E0.84409
G1 X101.299 Y68.464 E0.86418
G1 X102.282 Y68.273 E0.89748
G1 X103.429 Y68.104 E0.93604
G1 X105.937 Y67.786 E1.02013
G1 X106.632 Y67.707 E1.04339
G1 X107.644 Y67.64 E1.07713
G1 X109.037 Y67.615 E1.12346
G1 X111.511 Y67.619 E1.20575
G1 X112.124 Y67.629 E1.22614
G1 X113.107 Y67.69 E1.2589
G1 X114.418 Y67.831 E1.30275
G1 X116.67 Y68.116 E1.37825
G1 X117.423 Y68.221 E1.40354
G1 X118.415 Y68.407 E1.43711
G1 X119.745 Y68.722 E1.48257
G1 X121.914 Y69.28 E1.55706
G1 X122.666 Y69.484 E1.58298
G1 X123.615 Y69.789 E1.61613
G1 X124.686 Y70.188 E1.65414
G1 X127.03 Y71.114 E1.73797
G1 X127.695 Y71.387 E1.76188
G1 X128.609 Y71.813 E1.79542
G1 X129.823 Y72.451 E1.84103
G1 X131.947 Y73.62 E1.92167
G1 X132.496 Y73.933 E1.94269
G1 X133.328 Y74.458 E1.97541
G1 X134.418 Y75.218 E2.0196
G1 X136.288 Y76.576 E2.09647
G1 X136.872 Y77.011 E2.12069
G1 X137.664 Y77.662 E2.15479
G1 X138.675 Y78.577 E2.20014
G1 X140.356 Y80.155 E2.27683
G1 X140.874 Y80.654 E2.30075
G1 X141.563 Y81.383 E2.33411
G1 X142.443 Y82.407 E2.37902
G1 X144.002 Y84.293 E2.4604
G1 X144.386 Y84.771 E2.4808
G1 X144.972 Y85.572 E2.51381
G1 X145.586 Y86.496 E2.55071
G1 X147.038 Y88.782 E2.64078
G1 X147.339 Y89.271 E2.65988
G1 X147.827 Y90.153 E2.6934
G1 X148.428 Y91.371 E2.73858
G1 X149.478 Y93.605 E2.82068
G1 X149.716 Y94.131 E2.83988
G1 X150.079 Y95.04 E2.87244
G1 X150.523 Y96.318 E2.91744
G1 X151.242 Y98.531 E2.99483
G1 X151.463 Y99.247 E3.01975
G1 X151.707 Y100.188 E3.05208
G1 X151.996 Y101.557 E3.09862
G1 X152.422 Y103.789 E3.1742
G1 X152.55 Y104.51 E3.19855
G1 X152.68 Y105.512 E3.23216
G1 X152.791 Y106.867 E3.27738
G1 X152.934 Y109.152 E3.35352
G1 X152.971 Y109.886 E3.37797
G1 X152.975 Y110.911 E3.41206
G1 X152.927 Y112.023 E3.44908
G1 X152.76 Y114.703 E3.53839
G1 X152.716 Y115.276 E3.5575
G1 X152.593 Y116.274 E3.59095
G1 X152.357 Y117.652 E3.63745
G1 X151.914 Y119.969 E3.71591
G1 X151.789 Y120.584 E3.73678
G1 X151.536 Y121.583 E3.77106
G1 X151.143 Y122.873 E3.81591
G1 X150.386 Y125.199 E3.89727
G1 X150.191 Y125.771 E3.91737
G1 X149.828 Y126.696 E3.95042
G1 X149.284 Y127.912 E3.99472
G1 X148.231 Y130.147 E4.0769
G1 X147.98 Y130.663 E4.09598
G1 X147.493 Y131.557 E4.12984
G1 X146.893 Y132.546 E4.16832
G1 X145.555 Y134.658 E4.25147
G1 X145.148 Y135.28 E4.2762
G1 X144.572 Y136.079 E4.30896
G1 X143.702 Y137.173 E4.35545
G1 X142.157 Y139.038 E4.436
G1 X141.777 Y139.485 E4.45551
G1 X141.087 Y140.225 E4.48916
G1 X140.273 Y141.021 E4.52703
G1 X138.449 Y142.737 E4.61032
G1 X137.898 Y143.241 E4.63516
G1 X137.129 Y143.881 E4.66844
G1 X136.019 Y144.72 E4.71471
G1 X134.177 Y146.058 E4.79044
G1 X133.577 Y146.482 E4.81487
G1 X132.728 Y147.025 E4.84839
G1 X131.735 Y147.597 E4.88651
G1 X129.429 Y148.866 E4.97405
G1 X128.895 Y149.15 E4.99417
G1 X127.987 Y149.581 E5.0276
G1 X126.695 Y150.121 E5.07417
G1 X124.5 Y150.989 E5.15268
G1 X123.903 Y151.216 E5.17392
G1 X122.939 Y151.532 E5.20766
G1 X121.641 Y151.891 E5.25246
G1 X119.423 Y152.461 E5.32862
G1 X118.71 Y152.635 E5.35303
G1 X117.708 Y152.83 E5.38699
G1 X116.357 Y153.026 E5.43239
G1 X114.066 Y153.315 E5.50919
G1 X113.352 Y153.396 E5.53309
G1 X112.35 Y153.462 E5.56649
G1 X111.218 Y153.485 E5.60415
G1 X108.549 Y153.486 E5.69292
G1 X107.957 Y153.478 E5.71261
G1 X106.95 Y153.418 E5.74617
G1 X105.633 Y153.277 E5.79022
G1 X103.292 Y152.982 E5.8687
G1 X102.589 Y152.883 E5.89231
G1 X101.616 Y152.701 E5.92523
G1 X100.276 Y152.384 E5.97103
G1 X98.035 Y151.808 E6.04799
G1 X97.335 Y151.618 E6.07212
G1 X96.385 Y151.313 E6.1053
G1 X95.333 Y150.921 E6.14264
G1 X92.97 Y149.987 E6.22715
G1 X92.3 Y149.712 E6.25124
G1 X91.388 Y149.287 E6.28471
G1 X90.372 Y148.755 E6.32285
G1 X88.053 Y147.481 E6.41085
G1 X87.504 Y147.168 E6.43187
G1 X86.672 Y146.643 E6.46459
G1 X85.582 Y145.883 E6.50879
G1 X83.712 Y144.525 E6.58566
G1 X83.128 Y144.09 E6.60988
G1 X82.336 Y143.439 E6.64398
G1 X81.325 Y142.524 E6.68933
G1 X79.644 Y140.946 E6.76601
G1 X79.124 Y140.445 E6.79003
G1 X78.434 Y139.715 E6.82344
G1 X77.702 Y138.866 E6.86072
G1 X75.998 Y136.808 E6.94959
G1 X75.614 Y136.33 E6.96998
G1 X75.028 Y135.529 E7.00299
G1 X74.414 Y134.605 E7.03989
G1 X73.042 Y132.446 E7.12497
G1 X72.657 Y131.821 E7.14939
G1 X72.175 Y130.951 E7.18247
G1 X71.567 Y129.719 E7.22816
G1 X70.58 Y127.622 E7.30525
G1 X70.283 Y126.967 E7.32917
G1 X69.915 Y126.046 E7.36216
G1 X69.483 Y124.798 E7.40608
G1 X68.708 Y122.41 E7.48959
G1 X68.536 Y121.852 E7.50901
G1 X68.287 Y120.894 E7.54193
G1 X68.011 Y119.581 E7.58655
G1 X67.579 Y117.318 E7.66318
G1 X67.449 Y116.583 E7.68801
G1 X67.321 Y115.595 E7.72114
G1 X67.225 Y114.445 E7.75952
G1 X67.058 Y111.811 E7.84731
G1 X67.028 Y111.203 E7.86755
G1 X67.025 Y110.194 E7.90111
G1 X67.084 Y108.862 E7.94546
G1 X67.241 Y106.389 E8.02788
G1 X67.284 Y105.828 E8.04659
G1 X67.407 Y104.832 E8.07997
G1 X67.641 Y103.459 E8.12629
G1 X68.066 Y101.229 E8.2018
G1 X68.213 Y100.507 E8.22631
G1 X68.463 Y99.521 E8.26014
G1 X68.854 Y98.236 E8.30481
G1 X69.564 Y96.051 E8.38123
G1 X69.804 Y95.344 E8.40606
G1 X70.171 Y94.409 E8.43947
G1 X70.738 Y93.143 E8.4856
G1 X71.769 Y90.954 E8.56608
G1 X72.025 Y90.429 E8.58551
G1 X72.508 Y89.543 E8.61907
G1 X73.226 Y88.364 E8.66498
G1 X74.445 Y86.443 E8.74066
G1 X74.852 Y85.821 E8.76538
G1 X75.428 Y85.022 E8.79814
G1 X76.298 Y83.928 E8.84463
G1 X77.843 Y82.063 E8.92518
G1 X78.223 Y81.616 E8.94469
G1 X78.913 Y80.876 E8.97835
G0 F6000 X79.193 Y81.162
G1 F1200 X80.007 Y80.366 E9.01621
G1 X81.937 Y78.552 E9.10431
G1 X82.371 Y78.156 E9.12385
G1 X83.112 Y77.539 E9.15592
G1 X84.216 Y76.705 E9.20194
G1 X86.058 Y75.367 E9.27766
G1 X86.654 Y74.946 E9.30193
G1 X87.472 Y74.423 E9.33422
G1 X88.648 Y73.748 E9.37932
G1 X90.752 Y72.592 E9.45917
G1 X91.287 Y72.307 E9.47933
G1 X92.177 Y71.884 E9.5121
G1 X93.247 Y71.436 E9.55069
G1 X95.636 Y70.49 E9.63615
G1 X96.256 Y70.254 E9.65821
G1 X97.19 Y69.948 E9.6909
G1 X98.481 Y69.591 E9.73545
G1 X100.661 Y69.031 E9.81031
G1 X101.393 Y68.853 E9.83537
G1 X102.34 Y68.669 E9.86746
G1 X103.708 Y68.47 E9.91343
G1 X106.126 Y68.166 E9.99449
G1 X106.677 Y68.104 E10.01293
G1 X107.652 Y68.04 E10.04543
G1 X109.037 Y68.015 E10.0915
G1 X111.505 Y68.019 E10.17359
G1 X112.118 Y68.029 E10.19398
G1 X113.065 Y68.087 E10.22554
G1 X114.157 Y68.203 E10.26206
G1 X116.62 Y68.513 E10.34463
G1 X117.367 Y68.617 E10.36971
G1 X118.323 Y68.796 E10.40206
G1 X119.645 Y69.109 E10.44725
G1 X121.814 Y69.667 E10.52174
G1 X122.561 Y69.87 E10.54748
G1 X123.476 Y70.164 E10.57945
G1 X124.547 Y70.563 E10.61746
G1 X127.016 Y71.539 E10.70577
G1 X127.543 Y71.756 E10.72472
G1 X128.424 Y72.167 E10.75706
G1 X129.442 Y72.7 E10.79527
G1 X131.749 Y73.967 E10.88282
G1 X132.298 Y74.28 E10.90383
G1 X133.1 Y74.786 E10.93537
G1 X134.006 Y75.416 E10.97208
G1 X136.053 Y76.9 E11.05617
G1 X136.633 Y77.332 E11.08022
G1 X137.396 Y77.959 E11.11307
G1 X138.401 Y78.869 E11.15816
G1 X140.19 Y80.549 E11.23979
G1 X140.596 Y80.941 E11.25856
G1 X141.26 Y81.644 E11.29072
G1 X142.135 Y82.662 E11.33537
G1 X143.69 Y84.543 E11.41654
G1 X144.074 Y85.021 E11.43694
G1 X144.639 Y85.793 E11.46875
G1 X145.253 Y86.717 E11.50565
G1 X146.621 Y88.87 E11.5905
G1 X146.998 Y89.481 E11.61437
G1 X147.469 Y90.33 E11.64667
G1 X147.972 Y91.345 E11.68434
G1 X149.048 Y93.629 E11.76832
G1 X149.351 Y94.296 E11.79268
G1 X149.701 Y95.171 E11.82403
G1 X150.142 Y96.442 E11.86877
G1 X150.913 Y98.818 E11.95186
G1 X151.081 Y99.365 E11.97089
G1 X151.316 Y100.271 E12.00202
G1 X151.603 Y101.632 E12.04828
G1 X152.056 Y104.008 E12.12873
G1 X152.157 Y104.58 E12.14805
G1 X152.282 Y105.545 E12.18042
G1 X152.376 Y106.676 E12.21816
G1 X152.542 Y109.308 E12.30588
G1 X152.572 Y109.906 E12.32579
G1 X152.575 Y110.894 E12.35865
G1 X152.516 Y112.212 E12.40253
G1 X152.361 Y114.673 E12.48455
G1 X152.317 Y115.246 E12.50366
G1 X152.199 Y116.207 E12.53587
G1 X152.003 Y117.362 E12.57483
G1 X151.522 Y119.889 E12.66039
G1 X151.397 Y120.504 E12.68126
G1 X151.153 Y121.467 E12.7143
G1 X150.763 Y122.749 E12.75887
G1 X150.055 Y124.927 E12.83504
G1 X149.812 Y125.642 E12.86016
G1 X149.463 Y126.533 E12.89199
G1 X149.016 Y127.537 E12.92854
G1 X147.871 Y129.972 E13.01804
G1 X147.62 Y130.488 E13.03712
G1 X147.151 Y131.349 E13.06973
G1 X146.438 Y132.52 E13.11533
G1 X145.217 Y134.444 E13.19112
G1 X144.813 Y135.061 E13.21565
G1 X144.258 Y135.831 E13.24722
G1 X143.394 Y136.918 E13.2934
G1 X141.852 Y138.779 E13.37379
G1 X141.472 Y139.226 E13.3933
G1 X140.807 Y139.939 E13.42573
G1 X139.993 Y140.735 E13.4636
G1 X138.063 Y142.549 E13.55169
G1 X137.629 Y142.945 E13.57123
G1 X136.888 Y143.562 E13.6033
G1 X135.784 Y144.396 E13.64932
G1 X133.942 Y145.734 E13.72504
G1 X133.346 Y146.155 E13.74931
G1 X132.528 Y146.678 E13.78161
G1 X131.352 Y147.353 E13.82671
G1 X129.241 Y148.513 E13.90682
G1 X128.707 Y148.797 E13.92694
G1 X127.833 Y149.212 E13.95912
G1 X126.548 Y149.749 E14.00544
G1 X124.492 Y150.563 E14.07898
G1 X123.76 Y150.842 E14.10504
G1 X122.832 Y151.147 E14.13753
G1 X121.742 Y151.45 E14.17516
G1 X119.188 Y152.107 E14.26287
G1 X118.616 Y152.246 E14.28245
G1 X117.65 Y152.434 E14.31518
G1 X116.307 Y152.629 E14.36032
G1 X114.016 Y152.918 E14.43712
G1 X113.308 Y152.998 E14.46082
G1 X112.342 Y153.062 E14.49302
G1 X110.995 Y153.087 E14.53783
G1 X108.555 Y153.086 E14.61898
G1 X107.963 Y153.078 E14.63867
G1 X106.992 Y153.02 E14.67103
G1 X105.683 Y152.88 E14.71481
G1 X103.342 Y152.585 E14.79329
G1 X102.645 Y152.487 E14.8167
G1 X101.707 Y152.311 E14.84844
G1 X100.375 Y151.996 E14.89397
G1 X98.134 Y151.42 E14.97093
G1 X97.44 Y151.232 E14.99484
G1 X96.525 Y150.938 E15.02681
G1 X95.473 Y150.546 E15.06415
G1 X92.981 Y149.56 E15.15328
G1 X92.452 Y149.342 E15.17231
G1 X91.574 Y148.933 E15.20453
G1 X90.558 Y148.401 E15.24267
G1 X88.251 Y147.134 E15.33021
G1 X87.702 Y146.821 E15.35123
G1 X86.9 Y146.315 E15.38277
G1 X85.994 Y145.685 E15.41948
G1 X83.947 Y144.201 E15.50357
G1 X83.367 Y143.769 E15.52762
G1 X82.604 Y143.142 E15.56047
G1 X81.599 Y142.232 E15.60556
G1 X79.918 Y140.654 E15.68225
G1 X79.402 Y140.157 E15.70608
G1 X78.737 Y139.454 E15.73826
G1 X77.865 Y138.439 E15.78277
G1 X76.31 Y136.558 E15.86394
G1 X75.926 Y136.08 E15.88433
G1 X75.361 Y135.308 E15.91615
G1 X74.747 Y134.384 E15.95305
G1 X73.379 Y132.231 E16.03789
G1 X72.998 Y131.612 E16.06207
G1 X72.534 Y130.773 E16.09396
G1 X71.929 Y129.549 E16.13937
G1 X70.942 Y127.452 E16.21645
G1 X70.647 Y126.802 E16.2402
G1 X70.292 Y125.914 E16.272
G1 X69.863 Y124.674 E16.31564
G1 X69.139 Y122.447 E16.39353
G1 X68.918 Y121.734 E16.41836
G1 X68.679 Y120.811 E16.45007
G1 X68.404 Y119.506 E16.49443
G1 X67.972 Y117.243 E16.57105
G1 X67.843 Y116.514 E16.59568
G1 X67.72 Y115.562 E16.6276
G1 X67.608 Y114.194 E16.67326
G1 X67.458 Y111.791 E16.75334
G1 X67.428 Y111.183 E16.77358
G1 X67.425 Y110.211 E16.80591
G1 X67.483 Y108.887 E16.84999
G1 X67.63 Y106.561 E16.92751
G1 X67.683 Y105.859 E16.95092
G1 X67.801 Y104.898 E16.98313
G1 X68.034 Y103.534 E17.02915
G1 X68.459 Y101.304 E17.10466
G1 X68.605 Y100.587 E17.12899
G1 X68.845 Y99.637 E17.16158
G1 X69.171 Y98.561 E17.19898
G1 X69.945 Y96.174 E17.28244
G1 X70.183 Y95.473 E17.30706
G1 X70.536 Y94.572 E17.33925
G1 X71.01 Y93.509 E17.37796
G1 X72.128 Y91.129 E17.46541
G1 X72.384 Y90.604 E17.48484
G1 X72.85 Y89.751 E17.51717
G1 X73.452 Y88.759 E17.55576
G1 X74.783 Y86.658 E17.63849
G1 X75.187 Y86.04 E17.66304
G1 X75.742 Y85.27 E17.69461
G1 X76.606 Y84.183 E17.7408
G1 X78.148 Y82.322 E17.82118
G1 X78.528 Y81.875 E17.84069
G1 X79.193 Y81.162 E17.87312
G0 F6000 X79.473 Y81.448
G1 F1200 X80.435 Y80.51 E17.91781
G1 X82.207 Y78.847 E17.99864
G1 X82.641 Y78.451 E18.01818
G1 X83.354 Y77.858 E18.04902
G1 X84.451 Y77.028 E18.09478
G1 X86.409 Y75.607 E18.17524
G1 X86.884 Y75.272 E18.19457
G1 X87.672 Y74.77 E18.22565
G1 X88.84 Y74.099 E18.27045
G1 X90.94 Y72.945 E18.35015
G1 X91.475 Y72.66 E18.37031
G1 X92.332 Y72.253 E18.40187
G1 X93.402 Y71.805 E18.44045
G1 X95.778 Y70.864 E18.52545
G1 X96.398 Y70.628 E18.54751
G1 X97.297 Y70.333 E18.57898
G1 X98.388 Y70.03 E18.61664
G1 X100.9 Y69.384 E18.70291
G1 X101.487 Y69.242 E18.72299
G1 X102.398 Y69.065 E18.75386
G1 X103.758 Y68.867 E18.79957
G1 X106.17 Y68.564 E18.88043
G1 X106.721 Y68.502 E18.89887
G1 X107.66 Y68.44 E18.93017
G1 X109.036 Y68.415 E18.97594
G1 X111.498 Y68.419 E19.05783
G1 X112.111 Y68.429 E19.07822
G1 X113.022 Y68.485 E19.10858
G1 X114.114 Y68.601 E19.1451
G1 X116.706 Y68.928 E19.23199
G1 X117.312 Y69.013 E19.25235
G1 X118.232 Y69.185 E19.28348
G1 X119.341 Y69.446 E19.32137
G1 X121.854 Y70.092 E19.40767
G1 X122.456 Y70.256 E19.42842
G1 X123.336 Y70.539 E19.45917
G1 X124.601 Y71.012 E19.50409
G1 X126.864 Y71.909 E19.58505
G1 X127.391 Y72.126 E19.60401
G1 X128.238 Y72.522 E19.63511
G1 X129.438 Y73.152 E19.68018
G1 X131.412 Y74.237 E19.7551
G1 X132.1 Y74.628 E19.78142
G1 X132.871 Y75.115 E19.81175
G1 X133.948 Y75.866 E19.85542
G1 X135.924 Y77.302 E19.93667
G1 X136.393 Y77.652 E19.95613
G1 X137.128 Y78.256 E19.98777
G1 X138.127 Y79.16 E20.03258
G1 X139.912 Y80.837 E20.11405
G1 X140.318 Y81.229 E20.13282
G1 X140.957 Y81.905 E20.16375
G1 X141.827 Y82.917 E20.20814
G1 X143.286 Y84.681 E20.28428
G1 X143.762 Y85.272 E20.30952
G1 X144.305 Y86.015 E20.34013
G1 X145.037 Y87.12 E20.38421
G1 X146.356 Y89.201 E20.46616
G1 X146.657 Y89.69 E20.48526
G1 X147.11 Y90.508 E20.51636
G1 X147.704 Y91.711 E20.56098
G1 X148.749 Y93.935 E20.64271
G1 X148.987 Y94.461 E20.66191
G1 X149.324 Y95.303 E20.69208
G1 X149.762 Y96.565 E20.73651
G1 X150.481 Y98.778 E20.8139
G1 X150.698 Y99.482 E20.8384
G1 X150.925 Y100.354 E20.86837
G1 X151.168 Y101.496 E20.90721
G1 X151.662 Y104.077 E20.99461
G1 X151.763 Y104.649 E21.01393
G1 X151.883 Y105.578 E21.04508
G1 X151.992 Y106.917 E21.08977
G1 X152.142 Y109.328 E21.17011
G1 X152.172 Y109.926 E21.19003
G1 X152.176 Y110.877 E21.22166
G1 X152.128 Y111.989 E21.25868
G1 X151.962 Y114.642 E21.34709
G1 X151.918 Y115.215 E21.3662
G1 X151.804 Y116.141 E21.39723
G1 X151.571 Y117.502 E21.44316
G1 X151.13 Y119.81 E21.52131
G1 X151.005 Y120.425 E21.54219
G1 X150.771 Y121.351 E21.57395
G1 X150.444 Y122.43 E21.61145
G1 X149.674 Y124.803 E21.69443
G1 X149.433 Y125.513 E21.71937
G1 X149.097 Y126.371 E21.75002
G1 X148.65 Y127.375 E21.78657
G1 X147.511 Y129.797 E21.87559
G1 X147.26 Y130.313 E21.89467
G1 X146.809 Y131.142 E21.92606
G1 X146.209 Y132.131 E21.96454
G1 X144.797 Y134.357 E22.05221
G1 X144.479 Y134.842 E22.0715
G1 X143.945 Y135.582 E22.10185
G1 X143.086 Y136.663 E22.14778
G1 X141.633 Y138.418 E22.22356
G1 X141.167 Y138.967 E22.24751
G1 X140.527 Y139.653 E22.27871
G1 X139.565 Y140.591 E22.3234
G1 X137.793 Y142.254 E22.40423
G1 X137.359 Y142.65 E22.42377
G1 X136.646 Y143.243 E22.45461
G1 X135.549 Y144.073 E22.50037
G1 X133.591 Y145.494 E22.58083
